www/assets/icons/signal_wifi_bad.svg

<svg xmlns="http://www.w3.org/2000/svg" width="24" height="24" viewBox="0 0 24 24" fill='currentColor'><path d="M24 8.48A16.88 16.88 0 0 0 12 3.5c-4.69 0-8.93 1.9-12 4.98L12 20.5v-9h8.99zm-4.41 5.02-2.09 2.09-2.09-2.09L14 14.91 16.09 17 14 19.09l1.41 1.41 2.09-2.08 2.09 2.08L21 19.09 18.92 17 21 14.91z"/></svg>

<svg width="24" height="24" viewBox="0 0 24 24" xmlns="http://www.w3.org/2000/svg" fill='currentColor'><path d="M24 8.48C20.93 5.4 16.69 3.5 12 3.5C7.31 3.5 3.07 5.4 0 8.48L12 20.5V11.5H20.99L24 8.48ZM19.59 13.5L17.5 15.59L15.41 13.5L14 14.91L16.09 17L14 19.09L15.41 20.5L17.5 18.42L19.59 20.5L21 19.09L18.92 17L21 14.91L19.59 13.5Z"/></svg>
